content/blog/plugin-impl/separation.svg

<svg xmlns="http://www.w3.org/2000/svg" xmlns:xlink="http://www.w3.org/1999/xlink" width="401" height="311" style="background-color:#fff" viewBox="-0.5 -0.5 401 311"><defs><style>@import url(https://fonts.googleapis.com/css?family=Inter);</style></defs><path fill="#d5e8d4" stroke="#82b366" d="M140 0h160v60H140z" pointer-events="all"/><switch transform="translate(-.5 -.5)"><foreignObject width="100%" height="100%" pointer-events="none" requiredFeatures="http://www.w3.org/TR/SVG11/feature#Extensibility" style="overflow:visible;text-align:left"><div xmlns="http://www.w3.org/1999/xhtml" style="display:flex;align-items:unsafe center;justify-content:unsafe center;width:158px;height:1px;padding-top:30px;margin-left:141px"><div style="box-sizing:border-box;font-size:0;text-align:center"><div style="display:inline-block;font-size:18px;font-family:Helvetica;color:#000;line-height:1.2;pointer-events:all;white-space:normal;overflow-wrap:normal"><font face="SF Mono">common</font></div></div></div></foreignObject><text x="220" y="35" font-family="Helvetica" font-size="18" text-anchor="middle">common</text></switch><path fill="none" stroke="#000" stroke-miterlimit="10" d="M60 170 162.51 64.62" pointer-events="stroke"/><path stroke="#000" stroke-miterlimit="10" d="m167.22 59.78-3.05 9.59-1.66-4.75-4.79-1.53Z" pointer-events="all"/><path fill="#dae8fc" stroke="#6c8ebf" d="M0 170h120v60H0z" pointer-events="all"/><switch transform="translate(-.5 -.5)"><foreignObject width="100%" height="100%" pointer-events="none" requiredFeatures="http://www.w3.org/TR/SVG11/feature#Extensibility" style="overflow:visible;text-align:left"><div xmlns="http://www.w3.org/1999/xhtml" style="display:flex;align-items:unsafe center;justify-content:unsafe center;width:118px;height:1px;padding-top:200px;margin-left:1px"><div style="box-sizing:border-box;font-size:0;text-align:center"><div style="display:inline-block;font-size:18px;font-family:SF Mono;color:#000;line-height:1.2;pointer-events:all;white-space:normal;overflow-wrap:normal">runtime</div></div></div></foreignObject><text x="60" y="205" font-family="SF Mono" font-size="18" text-anchor="middle">runtime</text></switch><path fill="none" stroke="#000" stroke-miterlimit="10" d="m200 170 4.61-103.16" pointer-events="stroke"/><path stroke="#000" stroke-miterlimit="10" d="m204.91 60.1 4.09 9.19-4.39-2.45-4.6 2.05Z" pointer-events="all"/><path fill="none" stroke="#000" stroke-miterlimit="10" d="M270 250 245.06 66.78" pointer-events="stroke"/><path stroke="#000" stroke-miterlimit="10" d="m244.15 60.09 5.67 8.31-4.76-1.62-4.15 2.83Z" pointer-events="all"/><path fill="#fff2cc" stroke="#d6b656" d="M210 250h120v60H210z" pointer-events="all"/><switch transform="translate(-.5 -.5)"><foreignObject width="100%" height="100%" pointer-events="none" requiredFeatures="http://www.w3.org/TR/SVG11/feature#Extensibility" style="overflow:visible;text-align:left"><div xmlns="http://www.w3.org/1999/xhtml" style="display:flex;align-items:unsafe center;justify-content:unsafe center;width:118px;height:1px;padding-top:280px;margin-left:211px"><div style="box-sizing:border-box;font-size:0;text-align:center"><div style="display:inline-block;font-size:18px;font-family:SF Mono;color:#000;line-height:1.2;pointer-events:all;white-space:normal;overflow-wrap:normal">plugin2</div></div></div></foreignObject><text x="270" y="285" font-family="SF Mono" font-size="18" text-anchor="middle">plugin2</text></switch><path fill="none" stroke="#000" stroke-miterlimit="10" d="M340 170 275.22 66.67" pointer-events="stroke"/><path stroke="#000" stroke-miterlimit="10" d="m271.63 60.95 8.6 5.23-5.01.49-2.62 4.29Z" pointer-events="all"/><path fill="#fff2cc" stroke="#d6b656" d="M280 170h120v60H280z" pointer-events="all"/><switch transform="translate(-.5 -.5)"><foreignObject width="100%" height="100%" pointer-events="none" requiredFeatures="http://www.w3.org/TR/SVG11/feature#Extensibility" style="overflow:visible;text-align:left"><div xmlns="http://www.w3.org/1999/xhtml" style="display:flex;align-items:unsafe center;justify-content:unsafe center;width:118px;height:1px;padding-top:200px;margin-left:281px"><div style="box-sizing:border-box;font-size:0;text-align:center"><div style="display:inline-block;font-size:18px;font-family:Helvetica;color:#000;line-height:1.2;pointer-events:all;white-space:normal;overflow-wrap:normal"><font face="SF Mono">plugin3</font></div></div></div></foreignObject><text x="340" y="205" font-family="Helvetica" font-size="18" text-anchor="middle">plugin3</text></switch><path fill="#fff2cc" stroke="#d6b656" d="M140 170h120v60H140z" pointer-events="all"/><switch transform="translate(-.5 -.5)"><foreignObject width="100%" height="100%" pointer-events="none" requiredFeatures="http://www.w3.org/TR/SVG11/feature#Extensibility" style="overflow:visible;text-align:left"><div xmlns="http://www.w3.org/1999/xhtml" style="display:flex;align-items:unsafe center;justify-content:unsafe center;width:118px;height:1px;padding-top:200px;margin-left:141px"><div style="box-sizing:border-box;font-size:0;text-align:center"><div style="display:inline-block;font-size:18px;font-family:Helvetica;color:#000;line-height:1.2;pointer-events:all;white-space:normal;overflow-wrap:normal"><font face="SF Mono">plugin1</font></div></div></div></foreignObject><text x="200" y="205" font-family="Helvetica" font-size="18" text-anchor="middle">plugin1</text></switch><switch><g requiredFeatures="http://www.w3.org/TR/SVG11/feature#Extensibility"/><a xlink:href="https://www.diagrams.net/doc/faq/svg-export-text-problems" target="_blank" transform="translate(0 -5)"><text x="50%" y="100%" font-size="10" text-anchor="middle">Viewer does not support full SVG 1.1</text></a></switch></svg>

<?xml version="1.0" encoding="UTF-8"?>
<!-- Do not edit this file with editors other than diagrams.net -->
<!DOCTYPE svg PUBLIC "-//W3C//DTD SVG 1.1//EN" "http://www.w3.org/Graphics/SVG/1.1/DTD/svg11.dtd">
<svg xmlns="http://www.w3.org/2000/svg" style="background-color: rgb(255, 255, 255);" xmlns:xlink="http://www.w3.org/1999/xlink" version="1.1" width="401px" height="311px" viewBox="-0.5 -0.5 401 311" content="&lt;mxfile host=&quot;app.diagrams.net&quot; modified=&quot;2022-02-10T00:13:58.244Z&quot; agent=&quot;5.0 (X11)&quot; etag=&quot;oDwKaIlJCt31Zk-7cLSE&quot; version=&quot;15.3.5&quot; type=&quot;google&quot;&gt;&lt;diagram id=&quot;9WaUhE6j1xyS1d6kJSYx&quot; name=&quot;Page-1&quot;&gt;7Vjfb5swEP5reGyFTSD0cU2b7aGVKuVhP14qBy7gzeDUMQnpXz8b2xCatOvWpGmnSpHCfb47jrvvzgYvGBX1Z0Hm+TVPgXnYT2svuPAwRgOMPf3z07VBhkPfAJmgqVXqgAm9Bws6tYqmsOgpSs6ZpPM+mPCyhET2MCIEX/XVZpz17zonGWwBk4SwbfQrTWVu0Dj0O/wL0Cx3d0a+XSmIU7bAIicpX21AwaUXjATn0lwV9QiYTp7Li7EbP7LaBiaglM8xuBzfTGuSlLc/pvT+9uRuAlf+SWi8LAmr7AN7OGLK3/mMK7cqYSQxC9FdpSM9n4wVes1L3kHqKtP/CS8KXjoHKhLjwyzaJMi1y6zgVZmCDs5Xy6ucSpjMzd1WiksKy2XBlIRsNJYcKNYyZWzEGReNryANIU4HCl9IwX/BxkqMp0EUtfdfgpBQP5pB1NZFERp4AVKslYo1wK7qlss4svKqYwZyWL7BCocRS8asdd3VS13Ykv1F+VpudWmFVPHXiiUvQdelEssm0TqT/bRzIXOe8ZKwK87nVuUnSLm22SaV5P1SQE3lN21+Glrpu3Wmry/qTWHthFI9rTFCw9ABjd3pWRw4oDNupM46/aRbWYkJI4sFTZpKE9FSYmC0rKgJsuCVSOAGBFWZBqGZRcvMLirTDOQji8rPmLL2aXUkraYNyCRdZ/ppJqnCNGE8UcGhnWlNRH9q1G1mCmBE0mU/jr3TbLg1JURVSpWSwzY1gXiW7GrqKIlhOrMexqSgTFOlm0x76XaE+t0+CHZ0O37Vbg/eXbcP/Oij27sKKpq/g3bH4Xvh2fGYYmaSOxKiPuujf9jiDku89uz8tomHtjaaOasyWuKDbjSz2QwnOzeaNJpGYXTgjSbA/Y0mREffaAYfA+BZW4UJOEZnm/2Ojt3r+JV63ZrecNq8Kjo6+306t/R2LmySjdUDprZhvIC8eGuIvOCd1syf4Bgvtc8YS/uYPmdv7ZjrDkn7LCD6fwv48KvEIQuoxO6DlWnY7rNfcPkb&lt;/diagram&gt;&lt;/mxfile&gt;"><defs><style type="text/css">@import url(https://fonts.googleapis.com/css?family=Inter);&#xa;</style></defs><g><rect x="140" y="0" width="160" height="60" fill="#d5e8d4" stroke="#82b366" pointer-events="all"/><g transform="translate(-0.5 -0.5)"><switch><foreignObject style="overflow: visible; text-align: left;" pointer-events="none" width="100%" height="100%" requiredFeatures="http://www.w3.org/TR/SVG11/feature#Extensibility"><div xmlns="http://www.w3.org/1999/xhtml" style="display: flex; align-items: unsafe center; justify-content: unsafe center; width: 158px; height: 1px; padding-top: 30px; margin-left: 141px;"><div style="box-sizing: border-box; font-size: 0px; text-align: center;"><div style="display: inline-block; font-size: 18px; font-family: Helvetica; color: rgb(0, 0, 0); line-height: 1.2; pointer-events: all; white-space: normal; overflow-wrap: normal;"><font face="SF Mono">common</font></div></div></div></foreignObject><text x="220" y="35" fill="#000000" font-family="Helvetica" font-size="18px" text-anchor="middle">common</text></switch></g><path d="M 60 170 Q 60 170 162.51 64.62" fill="none" stroke="#000000" stroke-miterlimit="10" pointer-events="stroke"/><path d="M 167.22 59.78 L 164.17 69.37 L 162.51 64.62 L 157.72 63.09 Z" fill="#000000" stroke="#000000" stroke-miterlimit="10" pointer-events="all"/><rect x="0" y="170" width="120" height="60" fill="#dae8fc" stroke="#6c8ebf" pointer-events="all"/><g transform="translate(-0.5 -0.5)"><switch><foreignObject style="overflow: visible; text-align: left;" pointer-events="none" width="100%" height="100%" requiredFeatures="http://www.w3.org/TR/SVG11/feature#Extensibility"><div xmlns="http://www.w3.org/1999/xhtml" style="display: flex; align-items: unsafe center; justify-content: unsafe center; width: 118px; height: 1px; padding-top: 200px; margin-left: 1px;"><div style="box-sizing: border-box; font-size: 0px; text-align: center;"><div style="display: inline-block; font-size: 18px; font-family: SF Mono; color: rgb(0, 0, 0); line-height: 1.2; pointer-events: all; white-space: normal; overflow-wrap: normal;">runtime</div></div></div></foreignObject><text x="60" y="205" fill="#000000" font-family="SF Mono" font-size="18px" text-anchor="middle">runtime</text></switch></g><path d="M 200 170 Q 200 170 204.61 66.84" fill="none" stroke="#000000" stroke-miterlimit="10" pointer-events="stroke"/><path d="M 204.91 60.1 L 209 69.29 L 204.61 66.84 L 200.01 68.89 Z" fill="#000000" stroke="#000000" stroke-miterlimit="10" pointer-events="all"/><path d="M 270 250 Q 270 250 245.06 66.78" fill="none" stroke="#000000" stroke-miterlimit="10" pointer-events="stroke"/><path d="M 244.15 60.09 L 249.82 68.4 L 245.06 66.78 L 240.91 69.61 Z" fill="#000000" stroke="#000000" stroke-miterlimit="10" pointer-events="all"/><rect x="210" y="250" width="120" height="60" fill="#fff2cc" stroke="#d6b656" pointer-events="all"/><g transform="translate(-0.5 -0.5)"><switch><foreignObject style="overflow: visible; text-align: left;" pointer-events="none" width="100%" height="100%" requiredFeatures="http://www.w3.org/TR/SVG11/feature#Extensibility"><div xmlns="http://www.w3.org/1999/xhtml" style="display: flex; align-items: unsafe center; justify-content: unsafe center; width: 118px; height: 1px; padding-top: 280px; margin-left: 211px;"><div style="box-sizing: border-box; font-size: 0px; text-align: center;"><div style="display: inline-block; font-size: 18px; font-family: SF Mono; color: rgb(0, 0, 0); line-height: 1.2; pointer-events: all; white-space: normal; overflow-wrap: normal;">plugin2</div></div></div></foreignObject><text x="270" y="285" fill="#000000" font-family="SF Mono" font-size="18px" text-anchor="middle">plugin2</text></switch></g><path d="M 340 170 Q 340 170 275.22 66.67" fill="none" stroke="#000000" stroke-miterlimit="10" pointer-events="stroke"/><path d="M 271.63 60.95 L 280.23 66.18 L 275.22 66.67 L 272.6 70.96 Z" fill="#000000" stroke="#000000" stroke-miterlimit="10" pointer-events="all"/><rect x="280" y="170" width="120" height="60" fill="#fff2cc" stroke="#d6b656" pointer-events="all"/><g transform="translate(-0.5 -0.5)"><switch><foreignObject style="overflow: visible; text-align: left;" pointer-events="none" width="100%" height="100%" requiredFeatures="http://www.w3.org/TR/SVG11/feature#Extensibility"><div xmlns="http://www.w3.org/1999/xhtml" style="display: flex; align-items: unsafe center; justify-content: unsafe center; width: 118px; height: 1px; padding-top: 200px; margin-left: 281px;"><div style="box-sizing: border-box; font-size: 0px; text-align: center;"><div style="display: inline-block; font-size: 18px; font-family: Helvetica; color: rgb(0, 0, 0); line-height: 1.2; pointer-events: all; white-space: normal; overflow-wrap: normal;"><font face="SF Mono">plugin3</font></div></div></div></foreignObject><text x="340" y="205" fill="#000000" font-family="Helvetica" font-size="18px" text-anchor="middle">plugin3</text></switch></g><rect x="140" y="170" width="120" height="60" fill="#fff2cc" stroke="#d6b656" pointer-events="all"/><g transform="translate(-0.5 -0.5)"><switch><foreignObject style="overflow: visible; text-align: left;" pointer-events="none" width="100%" height="100%" requiredFeatures="http://www.w3.org/TR/SVG11/feature#Extensibility"><div xmlns="http://www.w3.org/1999/xhtml" style="display: flex; align-items: unsafe center; justify-content: unsafe center; width: 118px; height: 1px; padding-top: 200px; margin-left: 141px;"><div style="box-sizing: border-box; font-size: 0px; text-align: center;"><div style="display: inline-block; font-size: 18px; font-family: Helvetica; color: rgb(0, 0, 0); line-height: 1.2; pointer-events: all; white-space: normal; overflow-wrap: normal;"><font face="SF Mono">plugin1</font></div></div></div></foreignObject><text x="200" y="205" fill="#000000" font-family="Helvetica" font-size="18px" text-anchor="middle">plugin1</text></switch></g></g><switch><g requiredFeatures="http://www.w3.org/TR/SVG11/feature#Extensibility"/><a transform="translate(0,-5)" xlink:href="https://www.diagrams.net/doc/faq/svg-export-text-problems" target="_blank"><text text-anchor="middle" font-size="10px" x="50%" y="100%">Viewer does not support full SVG 1.1</text></a></switch></svg>
